icons/mobile/24/svg/collection-24.svg

<svg width="24" height="24" viewBox="0 0 24 24" fill="none" xmlns="http://www.w3.org/2000/svg">
<path d="M15.125 15.75C15.608 15.75 16 16.142 16 16.625C16 17.108 15.608 17.5 15.125 17.5H8.875C8.392 17.5 8 17.108 8 16.625C8 16.142 8.392 15.75 8.875 15.75H15.125Z" fill="black"/>
<path d="M15.125 11.75C15.608 11.75 16 12.142 16 12.625C16 13.108 15.608 13.5 15.125 13.5H8.875C8.392 13.5 8 13.108 8 12.625C8 12.142 8.392 11.75 8.875 11.75H15.125Z" fill="black"/>
<path fill-rule="evenodd" clip-rule="evenodd" d="M12 3C13.5245 3 14.8895 3.1402 16.0557 3.33301C16.8993 3.47322 17.6439 3.94862 18.126 4.65234C18.1287 4.65628 18.1302 4.66107 18.1328 4.66504L19.8057 7.10547C20.4198 8.00038 20.749 9.06194 20.749 10.1465V18.4688C20.749 20.0209 19.6041 21.3463 18.0664 21.5674C15.7938 21.8941 13.7448 22.001 11.999 22.001C9.7406 22.001 7.69221 21.8209 5.90039 21.5615C4.36074 21.3383 3.24902 20.0027 3.24902 18.4717V10.1445C3.24912 9.05905 3.57742 7.99919 4.19141 7.10449L5.87598 4.64844L5.87695 4.64746C6.33759 3.97655 7.05538 3.48205 7.89551 3.3418C9.45206 3.08168 10.8452 3 12 3ZM12 9C9.3518 9 7.00532 9.2577 5.04004 9.59766C5.01252 9.77782 4.99905 9.96066 4.99902 10.1445V18.4717C4.99902 19.1586 5.49719 19.7352 6.15137 19.8301L6.80664 19.9199C8.3633 20.1195 10.104 20.251 11.999 20.251C13.6732 20.251 15.6381 20.1482 17.8174 19.835C18.4917 19.738 18.999 19.1526 18.999 18.4688V10.1465C18.999 9.96269 18.9846 9.77993 18.957 9.59961C16.321 9.14407 13.9611 9 12 9ZM12 4.75C10.9269 4.75 9.6319 4.82554 8.18457 5.06738C7.84943 5.12334 7.53249 5.32727 7.31934 5.6377L5.91211 7.68848C7.70187 7.43002 9.74603 7.25 12 7.25C13.7505 7.25 15.8055 7.3605 18.085 7.68945L16.6816 5.64258C16.6797 5.63982 16.6786 5.63656 16.6768 5.63379C16.4628 5.32592 16.1387 5.12089 15.7695 5.05957C14.6859 4.88045 13.4171 4.75 12 4.75Z" fill="black"/>
</svg>

<!-- This Source Code Form is subject to the terms of the Mozilla Public
   - License, v. 2.0. If a copy of the MPL was not distributed with this
   - file, You can obtain one at http://mozilla.org/MPL/2.0/. -->
<svg xmlns="http://www.w3.org/2000/svg" width="24" height="24" fill="none" viewBox="0 0 24 24">
    <path fill="#000" d="M15.125 15.75a.875.875 0 0 1 0 1.75h-6.25a.875.875 0 0 1 0-1.75zm0-4a.875.875 0 0 1 0 1.75h-6.25a.875.875 0 0 1 0-1.75z" />
    <path fill="#000" fill-rule="evenodd" d="M12 3c1.524 0 2.89.14 4.056.333.843.14 1.588.616 2.07 1.32l.007.012 1.673 2.44a5.4 5.4 0 0 1 .943 3.041v8.323a3.134 3.134 0 0 1-2.683 3.098A42.6 42.6 0 0 1 5.9 21.561c-1.54-.223-2.651-1.558-2.651-3.09v-8.326c0-1.086.328-2.146.942-3.04l1.685-2.457a3.08 3.08 0 0 1 2.02-1.306A25 25 0 0 1 12 3m0 6c-2.648 0-4.995.258-6.96.598q-.04.27-.041.547v8.327c0 .687.498 1.263 1.152 1.358l.656.09a40.8 40.8 0 0 0 11.01-.085A1.384 1.384 0 0 0 19 18.469v-8.323q0-.275-.042-.546A41 41 0 0 0 12 9m0-4.25a23 23 0 0 0-3.815.317c-.336.056-.653.26-.866.57L5.912 7.689A42.6 42.6 0 0 1 12 7.25c1.75 0 3.806.11 6.085.44l-1.403-2.047-.005-.01a1.37 1.37 0 0 0-.907-.573A23 23 0 0 0 12 4.75" clip-rule="evenodd" />
</svg>
